X: 16757
T: Hare In The Corn, The
R: jig
M: 6/8
K: Dmajor
|:F2A AFA|BdB AFE|~F2E EDE|~F2D D2E|
F2A AFA|BdB AFA|Bcd edc|1 ~d3 dBG:|2 ~d3 d2e||
|:~f3 fed|~g2e ede|~f3 fed|faa bag|
~f3 fed|~g2e edB|ABd edc|1 ~d3 d2e:|2 ~d3 dBG||

